X:1
T:Voi che sapete
T:Mozart
T:Le mariage de Figaro
%%score 1 { ( 2 3 6 7 ) | ( 4 5 ) }
L:1/8
Q:1/4=70
M:2/4
K:Bb
V:1 treble nm="Cherubino" snm="Cher"
V:2 treble nm="Piano" snm="Pia."
V:3 treble 
V:6 treble 
V:7 treble 
V:4 bass 
V:5 bass 
V:1
 z4 | z4 | z4 | z4 | z4 | z4 | z4 | z4 | %8
w: ||||||||
"^Vous Mesdames qui savez de quoi est fait l'amour," B2 F F | c2 F2 | d2 B3/4 c/4 d3/4 e/4 | %11
w: Voi che sa-|pe- te|che co- sa é a-|
 c2 z2 | d2 e"^Voyez s'il est dans mon coeur." =e | (f>d) B z | c2 _d =d | e2 z2 | (fd) f d | %17
w: mor,|don- ne ve-|de- * te|s'io l'ho nel|cor,|don- * ne ve-|
 (ce) (ce) | B2 (A/>B/) (c/>d/) | B2 z2 |"^Je vous dirai ce que j'éprouve," c2 c c | %21
w: de- * te _|s'io l'ho _ nel _|cor.|Quel- lo ch'io|
 (d/=e/f/d/) c2 | (G>A) B c |{B} A2 z2 |"^C'est si nouveau que je ne puis le comprendre." d2 =e e | %25
w: pro- * * * vo|vi _ ri- di-|ro,|è per me|
 f>d .A2 | A>d c =B | c2 z2 | c2 c f |"^Je ressens une langueur pleine de désir," =ec B z | %30
w: nuo- * vo,|ca- * pir nol|so.|Sen- to'un af-|fet- * to|
 A2 F B |{A} G2 z2 |"^Parfois douleur, parfois plaisir," c2 c/d/ =e/f/ | (f/=e/d/)c/ B z | %34
w: pien di de-|sir,|ch'o- ra'è * di- *|let- * * * to,|
 _A2 G F | c2 z2 |"^Je gèle, quand soudain mon âme s'enflamme," c2 c c | _e2 _d2 | (_dB) G _D | %39
w: ch'o- ra'è mar-|tir;|ge- lo,e piu|sen- to|I'al- * ma'av vam-|
 C2 z2 |"^Et le moment d'après je redeviens glacé." e c e c | (B_d) (Bd) | _A2{c} B3/2 A/ | %43
w: par,|e in un mo-|men- * to _|tor- no'a ge-|
 _A2 z2 |"^Je recherche un bien être au delà de moi," c2 c c | (c/d/e/d/) c2 | e2 d c | G4 | %48
w: lar.|Ri- cer- co'un|bo- * * * ne|fuo- ri di|me:|
"^Je ne puis le saisir, j'ignore ce qu'il est." e2 d ^c | d2 B2 | A2 d d | %51
w: non so chi'il|tie- ne,|no so co-|
 G2 z/"^Je soupire et je gémis, sans le vouloir" B/ B/ B/ | (c/B/) B z/ B/ B/ B/ | %53
w: s'è; sos- pi- ro'e|ge- * mo sen- za vo-|
 G z"^Je tremble et je palpite, sans rien savoir." c c/ c/ | (d/c/) c z/ c/ c/ c/ | %55
w: ler pal- pi- to'e|tre- * mo sen- za sa-|
 A2 z/"^Je ne trouve le repos, ni le jour ni la nuit." d/ d/ d/ | (e/d/) d d d/ d/ | %57
w: per non tro- vo|pa- * ce not- te nè|
 B B"^Mais peu importe j'aime souffrir ainsi." e e | (e>f) d2 | _d2 c B | F4 | %61
w: di, ma pur mi|pia- * ce|lan- guir co-|si.|
"^Vous Mesdames qui savez de quoi est fait l'amour," B2 F F | c2 F2 | =d2 B3/4 c/4 d3/4 e/4 | %64
w: Voi che sa-|pe- te|che co- sa è a-|
 c2 z2 | d2 e =e |"^Voyez s'il est dans mon coeur." (f>d) B z | c2 _d =d | e2 z2 | %69
w: mor,|don- ne ve-|de- * te|s'io l'ho nel|cor,|
"^Voyez s'il est dans mon coeur." (fd) f d | (ce) (ce) | B2 F3/2 F/ | D2 z2 | %73
w: don- * ne ve-|de- * te _|s'io l'ho nel|cor,|
"^Voyez s'il est dans mon coeur." (fd) f d | (ce) (ce) | B2 (A/>B/) (c/>d/) | B2 z2 | z4 | z4 |] %79
w: don- * ne ve-|de- * te _|s'io l'ho _ nel _|cor.|||
V:2
 (B2 F)F | (c2 F)F | d2 B/>[Ac]/[Bd]/>[ce]/ | [Ac]FFF | [df][Bd]/ z/ [df][Bd]/ z/ | %5
 [Gc][ce]/ z/ [Ec][Ge]/ z/ | [Bfb]2 [Afa]/>[Bfb]/ [cfc']/>[dfd']/ | .[Bb].[dd'] .[Bb] z | %8
 z/ .[B,D]/.[DF]/.[FB]/ z/ .[B,D]/.[DF]/.[FB]/ | z/ .[CE]/.[EF]/.[Fc]/ z/ .[CE]/.[EF]/.[Fc]/ | %10
 z/ .[B,D]/.[DF]/.[FB]/ z/ .[DB]/.[EG]/.[ce]/ | z/ .[A,F]/.[FA]/.[Ac]/ z/ .[A,F]/.[FA]/.[Ac]/ | %12
 z/ B/b/B/ z/ B/b/B/ | f/(3f/4g/4f/4 b/b/ .b/.b/.b/.b/ | z/ [Ff]/[Ff]/[Ff]/ z/ f/f/f/ | %15
 (e/(3[ce]/4[df]/4[ce]/4 [efc']/).[dfb]/ .[cfa]/.[Bfg]/.[Af]/.[ce]/ | %16
 z/ [B,D]/[DF]/[FB]/ z/ [B,D]/[DF]/[FB]/ | z/ [CE]/[EG]/[Gc]/ z/ [CE]/[EG]/[Gc]/ | %18
 [Bfb]2 [Afa]/>[Bfb]/ [cfc']/>[dfd']/ | .[Bb].[dd'] [Bb]/D/[DF]/[FB]/ | %20
 z/ [A,C]/[CF]/[FA]/ z/ [A,C]/[CF]/[FA]/ | z/ [B,D]/[DF]/[FB]/ z/ [A,C]/[CF]/[FA]/ | %22
 z/ [G,B,]/[B,=E]/[EG]/ z/ [G,B,]/[B,E]/[EG]/ | z (A[Ac][cf]) | a4- | [da]([FA] [Ad][df]) | %26
 ([fa]d' c')=b | c'4 | [fc']/ [CF]/[FA]/[Ac]/ z/ [CF]/[FA]/[Ac]/ | %29
 z/ [B,=E]/[EG]/[GB]/ z/ [G,C]/[CG]/[GB]/ | z/ [A,C]/[CF]/[FA]/ z/ [A,F]/[G,D]/[GB]/ | %31
 z [cc']2 [cc'] | [cfc']/ [CF]/[FA]/[Ac]/ z/ [A,F]/[FA]/[Ac]/ | %33
 z/ [B,=E]/[EG]/[GB]/ z/ [G,C]/[CG]/[GB]/ | z/ [_A,C]/[CF]/[F_A]/ z/ [=B,F]/[FA]/[A=B]/ | %35
 z/ [C=E]/[EG]/[Gc]/ z/ [CE]/[EG]/[Gc]/ | z/ [CE]/[E_A]/[Ac]/ z/ [CE]/[EA]/[Ac]/ | %37
 z/ [B,E]/[EB]/[B_d]/ z/ [B,E]/[EB]/[Bd]/ | z/ [G,B,]/[B,_D]/[DG]/ z/ [G,B,]/[B,D]/[DG]/ | %39
 (c'_a)[ce][_Ac] | z/ [_A,C]/[CE]/[E_A]/ z/ [A,C]/[CE]/[EA]/ | %41
 z/ [B,_D]/[DF]/[FB]/ z/ [B,D]/[DF]/[FB]/ | [_Ae_a]2 [Geg]/>[Aea]/[Beb]/>[cec']/ | %43
 .[_Ae_a].[cec'] [Aea]/[_A,C]/[CE]/[EA]/ | z/ [CE]/[E_A]/[Ac]/ z/ [CE]/[EA]/[Ac]/ | %45
 z/ [EG]/[Gc]/[ce]/ z/ [EG]/[Gc]/[ce]/ | z/ [CE]/[EA]/[Ac]/ z/ [^FA]/[Ac]/[ce]/ | %47
 g/g/g/g/ g/g/g/g/ | z/ [EG]/[Gc]/[ce]/ [Bd]/[GB]/[B,G]/[GB]/ | %49
 z/ [A,^F]/[FA]/[Ad]/ z/ [G,B,]/[B,G]/[GB]/ | z/ [A,E]/[EG]/[GA]/ z/ [A,C]/[C^F]/[FA]/ | %51
 z/ [G,B,]/[B,D]/[DG]/ [Bb]2- | [Bb]4- | [Bb][=B=b] [cc']2- | c'4- | [cc'][^c^c'] [dd'] z | %56
 [dd']4- | d'2 e'2- | e'2 [bd']2 | _d'2 c'b | f4 | z/ [B,D]/[DF]/[FB]/ z/ [B,D]/[DF]/[FB]/ | %62
 z/ [CE]/[EF]/[Fc]/ z/ [CE]/[EF]/[Fc]/ | z/ [B,D]/[DF]/[FB]/ z/ [DB]/[EG]/[ce]/ | %64
 z/ [A,F]/[FA]/[Ac]/ [Ff]/[Ff]/[Ff]/[Ff]/ | z/ B/b/B/ z/ B/b/B/ | %66
 f/(3f/4g/4f/4b/[ab]/ .b/.b/.b/.b/ | z/ [Ff]/[Ff]/[Ff]/ z/ f/f/f/ | %68
 z/ (3[ce]/4[df]/4[ce]/4[efc']/.[dfb]/ .[cfa]/.[Bfg]/.[Af]/.[ce]/ | %69
 [Bd]/[B,D]/[DF]/[FB]/ z/ [B,D]/[DF]/[FB]/ | z/ [CE]/[EG]/[Gc]/ z/ [CE]/[EG]/[Gc]/ | %71
 z/ [B,D]/[DF]/[FB]/ z/ [A,C]/[CE]/[EA]/ | z dgb | d'4 | c'4 | [db]2 (a/>b/)(c'/>d'/) | %76
 b2 Ta3/2g/4a/4 | b z Ta3/2g/4a/4 | b z z2 |] %79
V:3
 D4 | E3 C | x4 | x4 | x4 | x4 | x4 | x4 | x4 | x4 | x4 | x4 | d2 e=e | %13
 x/ d[fa]/ .[_eg]/.[df]/.[ce]/.[Bd]/ | c2 _d=d/ x/ | x4 | x4 | x4 | x4 | x4 | x4 | x4 | x4 | x4 | %24
 f2 ^c2 | x4 | x4 | z gb=e | x4 | x4 | x4 | x gb=e | x4 | x4 | x4 | x4 | x4 | x4 | x4 | (ec)_AE | %40
 x4 | x4 | x4 | x4 | x4 | x4 | x4 | (=B[d=f])[ce][Bd] | x4 | x4 | x4 | x4 | x4 | x4 | x4 | x4 | %56
 x4 | (d g2) _g | fa x2 | _d2 cB | z/ [FA]/[Ac]/[FA]/ [Bd]/[FB]/[Ae]/[FA]/ | x4 | x4 | x4 | x4 | %65
 d2 e=e | f/df/ [eg]/[df]/[ce]/[Bd]/ | c2 _d=d/ x/ | x4 | x4 | x4 | x4 | B2 dg | x4 | x4 | x4 | %76
 x2 c2 | B x c2 | d x3 |] %79
V:4
 z/ .F,/.B,/.F,/ z/ .F,/.B,/.F,/ | z/ .F,/.A,/.F,/ z/ .F,/.A,/.F,/ | %2
 z/ .F,/.B,/.F,/ .G,,/.G,/.E,,/.E,/ | .F,,/.F,/.A,/.C/ .F,,/.F,/.A,/.C/ | %4
 .B,,/.F,/.B,/.D/ .B,,/.F,/.B,/.D/ | .E,,/.E,/.G,/.C/ .E,,/.E,/.G,/.C/ | F,,/F,/B,/D/ C/>D/E/>F/ | %7
 .D.F.D .[B,,B,] | B,, z B,, z | A,, z A,, z | B,, z G,,E,, | F,, z F, z | (B,2 C^C) | D z B, z | %14
 (A,2 B,=B,) | [F,C] z F, z | B,, z B,, z | E, z E, z | F,,/F,/B,/D/ C/>D/E/>F/ | %19
 .[B,D].[B,F] .[B,D]/ z/ z | [F,,F,] z [F,,F,] z | [F,,F,] z [F,,F,] z | [C,,C,] z [C,,C,] z | %23
 [F,,F,]/[F,A,]/[A,C]/[CF]/ [F,,F,]/[F,A,]/[A,C]/[CF]/ | %24
 D,/[F,A,]/[A,D]/[DF]/ A,,/[=E,A,]/[A,^C]/[C=E]/ | D,/F,/A,/D/ D,/[F,A,]/[A,D]/[DF]/ | %26
 F,,/[F,A,]/[A,D]/[DF]/ G,/[=EG]/G,/[DF]/ | C,/[=E,G,]/[G,C]/[C=E]/ B,,/[E,G,]/[G,C]/[CE]/ | %28
 .A,,2 .F,,2 | .G,,2 .=E,,2 | F,, z [D,,D,][B,,,B,,] | %31
 C,/[=E,G,]/[G,C]/[C=E]/ B,,/[E,G,]/[G,C]/[CE]/ | [A,,A,] z [F,,F,] z | [G,,G,] z [=E,,=E,] z | %34
 [F,,F,] z [_D,,_D,] z | [C,,C,] z [C,,C,] z | [_A,,,_A,,] z [A,,,A,,] z | %37
 [G,,,G,,] z [G,,,G,,] z | _E,, z E,, z | _A,,/[E,_A,]/[A,C]/[CE]/ A,,/E,/A,/C/ | C, z C, z | %41
 _D, z D, z | E,,/E,/_A,/C/ B,/>C/_D/>E/ | .[_A,C].[A,E] .[A,C]2 | [_A,,_A,] z [A,,A,] z | %45
 [G,,G,] z [G,,G,] z | [^F,,^F,] z [F,,F,] z | [G,,G,] z [G,,G,] z | [C,,C,] z [D,,D,][E,,E,] | %49
 [D,,D,] z [E,,E,] z | [C,,C,] z [D,,D,] z | G,, z G,,/[G,B,]/[B,D]/[DG]/ | %52
 D,/[_A,B,]/[B,F]/[A,B,]/ D,/[A,B,]/[B,F]/[A,B,]/ | E,/[G,E]/[EG]/[G,E]/ E,/[G,E]/[EG]/[G,E]/ | %54
 =E,/[B,C]/[CG]/[B,C]/ E,/[B,C]/[CG]/[B,C]/ | F,/[=A,F]/[FA]/[A,F]/ F,/[A,D]/[DA]/[A,D]/ | %56
 ^F,/[CD]/[B,F]/[CD]/ F,/[CD]/[B,F]/[CD]/ | G,/[B,D]/[DG]/[B,D]/ C/[EG]/B,/[CE_G]/ | %58
 A,/[CEF]/F,/[CEF]/ B,/D/G,/[B,D]/ | =E,/[B,_D]/[DG]/[B,D]/ E,/[B,C]/[CG]/[B,C]/ | F,_E, D,C, | %61
 B,, z B,, z | A,, z A,, z | B,,2 G,,E,, | z [A,C]2 [A,^C] | D2 C^C | [B,D] z B,, z | %67
 ([F,A,] z B,=B,) | [F,C] z [F,,F,] z | B,, z B,, z | [E,,E,] z [E,,E,] z | [F,,F,] z [F,,F,] z | %72
 G,,/[G,B,]/[B,D]/[DG]/ G,,/[G,B,]/[B,D]/[DG]/ | D,/[F,B,]/[B,F]/[F,B,]/ D,/[G,B,]/[B,F]/[G,B,]/ | %74
 E,/[G,C]/[CE]/[EG]/ E,/[G,C]/[CE]/[EG]/ | F,,/[F,B,]/[B,D]/[DF]/ F,,/[F,C]/[CE]/[EF]/ | %76
 B,,/[B,D]/[DF]/[B,D]/ F,/[CE]/[EF]/[CE]/ | B,,/[B,D]/[DF]/[B,D]/ F,/[CE]/[EF]/[CE]/ | D z z2 |] %79
V:5
 B,, z B,, z | A,, z A,, z | B,, z x2 | x4 | x4 | x4 | x2 F, x | .B,.B,.B, x | x4 | x4 | x4 | x4 | %12
 B,, z B,, z | B, x B,, z | F, z F, z | x4 | x4 | x4 | x2 F, z | x4 | x4 | x4 | x4 | x4 | x4 | x4 | %26
 x4 | x4 | x4 | x4 | x4 | x4 | x4 | x4 | x4 | x4 | x4 | x4 | x4 | x4 | x4 | x4 | x2 E,2 | x4 | x4 | %45
 x4 | x4 | x4 | x4 | x4 | x4 | x4 | x4 | x4 | x4 | x4 | x4 | x4 | x4 | x4 | x4 | x4 | x4 | x4 | %64
 .F,,2 F, x | B, z B,2 | x4 | x2 F, x | x4 | x4 | x4 | x4 | x4 | x4 | x4 | x4 | x4 | x4 | B, x3 |] %79
V:6
 x4 | x4 | x4 | x4 | x4 | x4 | x4 | x4 | x4 | x4 | x4 | x4 | x4 | x4 | z2 z/ F/F/F/ | x4 | x4 | %17
 x4 | x4 | x4 | x4 | x4 | x4 | x4 | x4 | x4 | x4 | x4 | x4 | x4 | x4 | x4 | x4 | x4 | x4 | x4 | %36
 x4 | x4 | x4 | x4 | x4 | x4 | x4 | x4 | x4 | x4 | x4 | x4 | x4 | x4 | x4 | x4 | x4 | x4 | c4- | %55
 x4 | x4 | x4 | x4 | g4 | x4 | x4 | x4 | x4 | x4 | x4 | x4 | x4 | x4 | x4 | x4 | x4 | x4 | f4 | %74
 e4 | x4 | x4 | x4 | x4 |] %79
V:7
 x4 | x4 | x4 | x4 | x4 | x4 | x4 | x4 | x4 | x4 | x4 | x4 | x4 | x4 | x4 | x4 | x4 | x4 | x4 | %19
 x4 | x4 | x4 | x4 | x4 | x4 | x4 | x4 | x4 | x4 | x4 | x4 | x4 | x4 | x4 | x4 | x4 | x4 | x4 | %38
 x4 | x4 | x4 | x4 | x4 | x4 | x4 | x4 | x4 | x4 | x4 | x4 | x4 | x4 | x4 | x4 | x4 | x4 | x4 | %57
 x4 | x4 | x4 | x4 | x4 | x4 | x4 | x4 | x4 | x4 | x5/2 F/F/F/ | x4 | x4 | x4 | x4 | x4 | x4 | x4 | %75
 x4 | x4 | x4 | x4 |] %79

